public/social/inst.svg

<svg width="187" height="186" viewBox="0 0 187 186" fill="none" xmlns="http://www.w3.org/2000/svg">
<path d="M142.418 34.2427C136.192 34.2427 131.523 38.9121 131.523 45.1381C131.523 51.364 136.192 56.0335 142.418 56.0335C148.644 56.0335 153.314 51.364 153.314 45.1381C153.314 38.9121 148.644 34.2427 142.418 34.2427Z" fill="#FB6BB3"/>
<path d="M93.3891 48.251C67.7071 48.251 47.4728 69.2635 47.4728 94.1673C47.4728 119.071 68.4853 140.084 93.3891 140.084C118.293 140.084 139.305 119.071 139.305 94.1673C139.305 69.2635 119.071 48.251 93.3891 48.251ZM93.3891 123.741C77.046 123.741 63.8159 110.51 63.8159 94.1673C63.8159 77.8242 77.046 64.5941 93.3891 64.5941C109.732 64.5941 122.962 77.8242 122.962 94.1673C122.962 110.51 109.732 123.741 93.3891 123.741Z" fill="#FB6BB3"/>
<path d="M130.745 0H56.8117C24.9038 0 0 24.9038 0 56.0335V129.967C0 161.096 24.9038 186 56.0335 186H129.967C161.096 186 186 161.096 186 129.967V56.0335C186.778 24.9038 161.874 0 130.745 0ZM168.879 130.745C168.879 151.757 151.757 169.657 129.967 169.657H56.0335C35.0209 169.657 17.1213 152.536 17.1213 130.745V56.8117C17.1213 35.7992 34.2427 17.8996 56.0335 17.8996H129.967C150.979 17.8996 168.879 35.0209 168.879 56.8117V130.745Z" fill="#FB6BB3"/>
</svg>

<svg xmlns="http://www.w3.org/2000/svg" width="187" height="186" fill="none"><g clip-path="url(#a)"><path fill="#FB6BB3" d="M130.745 0H56.812C24.904 0 0 24.904 0 56.033v73.934C0 161.096 24.904 186 56.033 186h73.934C161.096 186 186 161.096 186 129.967V56.033C186.778 24.904 161.874 0 130.745 0Zm38.134 130.745c0 21.012-17.122 38.912-38.912 38.912H56.033c-21.012 0-38.912-17.121-38.912-38.912V56.812c0-21.013 17.122-38.912 38.912-38.912h73.934c21.012 0 38.912 17.12 38.912 38.912v73.933Z"/></g><defs><clipPath id="a"><path fill="#fff" d="M0 0h187v186H0z"/></clipPath></defs></svg>
